images/POLITICA_CALIDAD/ICONS/Icon Procesos.svg

<svg width="91" height="91" viewBox="0 0 91 91" fill="none" xmlns="http://www.w3.org/2000/svg">
<circle cx="45.4114" cy="45.4114" r="45.4114" fill="white"/>
<path d="M73.1722 15.3906C80.9506 22.7878 85.7994 33.2373 85.7994 44.82C85.7994 67.2466 67.6184 85.4275 45.1919 85.4275C22.7654 85.4275 4.58447 67.2466 4.58447 44.82C4.58447 30.9213 11.5665 18.6545 22.2171 11.333" stroke="url(#paint0_linear_103_21)" stroke-width="2" stroke-miterlimit="10"/>
<path d="M68.81 17.2968C72.0965 17.2968 74.7607 14.6326 74.7607 11.3461C74.7607 8.0597 72.0965 5.39551 68.81 5.39551C65.5236 5.39551 62.8594 8.0597 62.8594 11.3461C62.8594 14.6326 65.5236 17.2968 68.81 17.2968Z" stroke="url(#paint1_linear_103_21)" stroke-width="2" stroke-miterlimit="10"/>
<path d="M32.3102 49.1196C32.3102 48.882 32.3102 48.686 32.3102 48.4887C32.3102 42.0641 32.3102 35.6395 32.3102 29.2135C32.3102 28.2121 32.5225 28 33.5221 28C40.6217 28 47.72 28 54.8196 28C55.8219 28 56.0478 28.2215 56.0478 29.2081C56.0478 33.1843 56.0478 37.159 56.0478 41.1352C56.0478 41.3338 56.0478 41.5325 56.0478 41.8117C56.394 41.8117 56.7065 41.8077 57.0189 41.8131C57.7561 41.8252 57.9833 42.0252 58.0902 42.7393C58.1145 42.9044 58.151 43.0695 58.174 43.2347C58.2728 43.9421 58.4337 44.13 59.1452 44.275C59.2683 44.3005 59.436 44.2347 59.5496 44.1609C59.8458 43.9689 60.1217 43.7448 60.4098 43.5407C60.8088 43.2588 61.2065 43.2669 61.5568 43.6105C62.4481 44.4817 63.3327 45.3596 64.2092 46.2456C64.5365 46.5772 64.5622 46.9557 64.2863 47.3396C64.1199 47.5719 63.9684 47.8189 63.7737 48.0269C63.4991 48.3196 63.4802 48.584 63.6398 48.9639C63.8021 49.3505 63.9914 49.5666 64.4243 49.5774C64.6921 49.5841 64.9599 49.6485 65.2236 49.7009C65.7836 49.811 65.9932 50.058 65.9959 50.6365C66.0014 51.8111 66.0014 52.9857 65.9959 54.1589C65.9932 54.7549 65.7768 55.0033 65.1817 55.1187C64.9504 55.163 64.7137 55.2261 64.4811 55.2207C63.9955 55.2087 63.7913 55.4543 63.6222 55.8839C63.4842 56.2329 63.5234 56.4477 63.7399 56.7336C64.7353 58.0465 64.7272 58.0532 63.5694 59.2009C62.9594 59.8063 62.3521 60.4131 61.7408 61.0158C61.1781 61.5715 60.8765 61.5957 60.2462 61.142C60.1231 61.0534 59.9743 60.9849 59.881 60.8735C59.4211 60.3204 58.9261 60.5728 58.4459 60.8104C58.3404 60.8628 58.2633 61.0359 58.2349 61.1661C58.1632 61.4923 58.1294 61.8279 58.0753 62.1582C57.9833 62.73 57.7128 62.9837 57.1204 62.9904C55.9369 63.0039 54.7534 63.0025 53.5712 62.9904C52.9558 62.9851 52.6921 62.7327 52.596 62.1246C52.5676 61.942 52.5311 61.7608 52.5068 61.5782C52.404 60.8359 52.2822 60.6869 51.5491 60.5231C51.426 60.4963 51.257 60.558 51.142 60.6305C50.8715 60.801 50.6253 61.0077 50.3629 61.1916C49.8233 61.5702 49.4878 61.5487 49.0212 61.0923C48.3706 60.456 47.7173 59.8238 47.0884 59.1673C46.8354 58.9029 46.5757 58.7982 46.2051 58.7995C40.7286 58.8116 35.252 58.7968 29.7754 58.8143C28.1605 58.8197 26.8363 58.2814 25.8611 56.9873C25.2984 56.241 25.009 55.3912 25.0049 54.4569C24.9982 53.0313 24.9995 51.6057 25.0022 50.1788C25.0036 49.4176 25.2727 49.1438 26.0369 49.1425C27.9806 49.1384 29.9242 49.1411 31.8679 49.1398C31.991 49.1398 32.1086 49.129 32.3102 49.1196ZM33.9332 29.6417C33.9332 29.8713 33.9332 30.0699 33.9332 30.2673C33.9332 37.8316 33.9278 45.3959 33.9373 52.9588C33.9387 54.422 34.0049 55.8866 32.9391 57.143C33.0892 57.1712 33.1501 57.1927 33.2123 57.1927C37.5717 57.194 41.9324 57.1954 46.2917 57.1887C46.4269 57.1887 46.596 57.1336 46.6907 57.0437C47.2101 56.5484 47.2223 56.3739 46.972 55.6986C46.8652 55.41 46.7272 55.2597 46.4012 55.2449C46.0658 55.2288 45.7331 55.155 45.4017 55.0932C44.9405 55.0073 44.6875 54.7308 44.6862 54.2583C44.6821 53.0166 44.6808 51.7762 44.6875 50.5345C44.6902 50.066 44.9351 49.7855 45.4044 49.7049C45.7371 49.6472 46.0685 49.5667 46.404 49.5465C46.7218 49.5277 46.8395 49.3733 46.9801 49.1035C47.2209 48.6377 47.206 48.2726 46.8219 47.9061C46.6664 47.7571 46.5527 47.5625 46.4297 47.3826C46.1159 46.9275 46.124 46.5987 46.5054 46.2107C47.3683 45.3368 48.2448 44.4737 49.1226 43.6132C49.4756 43.2669 49.8692 43.2575 50.2696 43.534C50.5604 43.7354 50.8336 43.9622 51.1298 44.1542C51.2448 44.2294 51.4098 44.2992 51.5343 44.2763C52.2268 44.1502 52.4161 43.934 52.5108 43.2414C52.5379 43.0427 52.5744 42.844 52.6055 42.6453C52.6988 42.0614 52.9477 41.8386 53.555 41.8131C53.8336 41.801 54.1136 41.8117 54.4017 41.8117C54.4017 37.7094 54.4017 33.6903 54.4017 29.6404C47.5902 29.6417 40.8043 29.6417 33.9332 29.6417ZM48.1109 46.9329C48.3111 47.2014 48.4883 47.4658 48.6925 47.7088C49.0401 48.1209 49.0753 48.5344 48.7994 49.0029C48.6384 49.2754 48.4734 49.5707 48.4193 49.8754C48.261 50.7667 47.6943 51.0983 46.853 51.1184C46.7516 51.1211 46.6352 51.109 46.5541 51.1547C46.4567 51.2111 46.3228 51.3185 46.3201 51.4071C46.3012 52.1386 46.3093 52.8702 46.3093 53.6018C46.7123 53.6622 47.0451 53.7173 47.3778 53.7589C47.8444 53.818 48.1285 54.0515 48.2746 54.516C48.4247 54.9925 48.6357 55.453 48.8548 55.904C49.0442 56.2947 49.0279 56.6396 48.7628 56.9819C48.5383 57.2719 48.3273 57.5713 48.1258 57.8464C48.7182 58.4317 49.2768 58.9848 49.853 59.5539C50.1303 59.3553 50.4387 59.1499 50.7295 58.9217C51.0757 58.6492 51.4152 58.6398 51.8102 58.8317C52.2633 59.0519 52.734 59.2398 53.2101 59.4063C53.6334 59.5539 53.9026 59.7875 53.9513 60.2547C53.9892 60.6171 54.0717 60.9755 54.1366 61.3407C54.9576 61.3407 55.7435 61.3407 56.5496 61.3407C56.6091 60.9849 56.6862 60.6574 56.716 60.3258C56.7619 59.7983 57.0568 59.5351 57.5464 59.3821C57.9941 59.2425 58.4351 59.0599 58.8503 58.8438C59.2642 58.6304 59.6159 58.6546 59.9756 58.9351C60.2637 59.1593 60.5681 59.3647 60.794 59.5271C61.3891 58.9391 61.9491 58.3874 62.5347 57.8102C62.3629 57.5793 62.1749 57.3014 61.9626 57.0437C61.6461 56.6584 61.6298 56.2759 61.8584 55.8342C62.0735 55.4194 62.2669 54.9845 62.3981 54.5388C62.5496 54.026 62.8715 53.8005 63.3787 53.7495C63.7074 53.7159 64.0334 53.6542 64.335 53.6086C64.335 52.7629 64.335 51.9829 64.335 51.1856C63.9684 51.1292 63.6384 51.0661 63.3043 51.0298C62.8553 50.9802 62.5712 50.7681 62.4225 50.3278C62.2561 49.8378 62.0491 49.3586 61.826 48.8914C61.6393 48.5008 61.6488 48.1572 61.9179 47.8135C62.1438 47.5249 62.3535 47.2255 62.5442 46.9651C61.9518 46.3758 61.3945 45.8201 60.8156 45.2415C60.5518 45.4335 60.2475 45.6456 59.9554 45.8711C59.6091 46.1382 59.2642 46.1503 58.8706 45.961C58.4161 45.7436 57.9481 45.5489 57.472 45.3851C57.0473 45.2388 56.7795 45.0052 56.7281 44.5394C56.6889 44.1757 56.6077 43.8159 56.5428 43.4494C55.7259 43.4494 54.9387 43.4494 54.1312 43.4494C54.0676 43.8199 53.9892 44.1636 53.954 44.5113C53.9053 44.9959 53.6334 45.2415 53.1844 45.3919C52.7069 45.5516 52.243 45.7583 51.7872 45.9704C51.4125 46.1449 51.0771 46.1382 50.7457 45.8858C50.4414 45.655 50.1289 45.4335 49.8368 45.22C49.2565 45.7999 48.7074 46.3436 48.1109 46.9329ZM26.6781 50.7694C26.6564 50.8647 26.6348 50.9117 26.6348 50.96C26.6321 52.0836 26.6239 53.2072 26.6321 54.3308C26.6442 55.9591 27.8697 57.1887 29.4657 57.1887C31.059 57.1887 32.2872 55.9604 32.3075 54.3294C32.3196 53.273 32.3115 52.2165 32.3088 51.1601C32.3088 51.0339 32.2804 50.9077 32.2642 50.7708C30.3882 50.7694 28.55 50.7694 26.6781 50.7694Z" fill="url(#paint2_linear_103_21)"/>
<path d="M37.4716 35.9388C37.4716 34.7656 37.4675 33.5923 37.4729 32.4191C37.4756 31.6956 37.7502 31.4271 38.4928 31.4231C39.6573 31.4177 40.8232 31.4164 41.9878 31.4231C42.7223 31.4271 42.9968 31.6969 42.9995 32.4298C43.0049 34.7763 43.0049 37.1228 42.9995 39.4693C42.9982 40.2103 42.7344 40.4774 42.0027 40.4814C40.8205 40.4881 39.6384 40.4895 38.4562 40.4814C37.7448 40.4774 37.4756 40.2089 37.4729 39.5096C37.4675 38.3175 37.4716 37.1282 37.4716 35.9388ZM41.3426 38.8464C41.3426 36.8865 41.3426 34.9857 41.3426 33.0594C40.5906 33.0594 39.8737 33.0594 39.1271 33.0594C39.1271 34.9992 39.1271 36.912 39.1271 38.8464C39.8764 38.8464 40.5933 38.8464 41.3426 38.8464Z" fill="url(#paint3_linear_103_21)"/>
<path d="M50.8837 36.9926C50.8837 37.8316 50.8877 38.6692 50.8823 39.5082C50.8783 40.1848 50.6077 40.4734 49.9436 40.4787C48.7263 40.4895 47.5104 40.4881 46.293 40.4787C45.6289 40.4734 45.3422 40.1888 45.3381 39.5163C45.3287 37.8396 45.3287 36.1617 45.3381 34.485C45.3422 33.7897 45.6357 33.5145 46.335 33.5118C47.5185 33.5078 48.7006 33.5078 49.8841 33.5118C50.6077 33.5145 50.8796 33.791 50.8823 34.5266C50.8864 35.3482 50.8837 36.1697 50.8837 36.9926ZM46.9923 35.1415C46.9923 36.3993 46.9923 37.6128 46.9923 38.8357C47.7592 38.8357 48.491 38.8357 49.2308 38.8357C49.2308 37.5873 49.2308 36.3738 49.2308 35.1415C48.4801 35.1415 47.7592 35.1415 46.9923 35.1415Z" fill="url(#paint4_linear_103_21)"/>
<path d="M39.445 50.0351C38.4332 50.0351 37.4215 50.0392 36.4084 50.0338C35.793 50.0311 35.4535 49.7465 35.4468 49.2498C35.44 48.7491 35.7836 48.431 36.3841 48.4283C38.4251 48.4203 40.4662 48.4216 42.5058 48.4283C43.1064 48.4297 43.4662 48.7411 43.4729 49.227C43.481 49.7371 43.124 50.0325 42.4801 50.0351C41.4684 50.0378 40.4567 50.0351 39.445 50.0351Z" fill="url(#paint5_linear_103_21)"/>
<path d="M39.4166 45.2657C40.4445 45.2657 41.4738 45.2616 42.5018 45.267C43.1145 45.2697 43.4648 45.557 43.4743 46.0442C43.4838 46.5315 43.1294 46.8685 42.5342 46.8712C40.477 46.8819 38.4197 46.8819 36.3625 46.8698C35.7646 46.8658 35.4292 46.5302 35.4468 46.0268C35.4644 45.5476 35.793 45.271 36.38 45.267C37.3931 45.2603 38.4048 45.2657 39.4166 45.2657Z" fill="url(#paint6_linear_103_21)"/>
<path d="M39.4166 51.5923C40.481 51.5923 41.5469 51.591 42.6113 51.5936C43.0076 51.5936 43.3512 51.7614 43.4148 52.1454C43.4581 52.4031 43.3539 52.7387 43.1997 52.9575C43.0915 53.1092 42.7858 53.187 42.5681 53.1884C40.4892 53.2045 38.4089 53.2045 36.33 53.1938C35.7619 53.1911 35.4373 52.8595 35.4481 52.3722C35.4589 51.9037 35.77 51.6057 36.3232 51.5977C37.3539 51.5802 38.3859 51.5923 39.4166 51.5923Z" fill="url(#paint7_linear_103_21)"/>
<path d="M49.7502 52.4192C49.7394 49.3438 52.2389 46.843 55.3336 46.8309C58.4161 46.8201 60.9387 49.325 60.936 52.3991C60.9346 55.4503 58.4486 57.9391 55.3783 57.9619C52.2985 57.986 49.761 55.4879 49.7502 52.4192ZM59.3129 52.4152C59.3197 50.2244 57.5289 48.4364 55.3363 48.4417C53.156 48.4484 51.3814 50.2123 51.3733 52.3789C51.3665 54.571 53.1533 56.3564 55.3512 56.3524C57.5275 56.3483 59.3061 54.5804 59.3129 52.4152Z" fill="url(#paint8_linear_103_21)"/>
<defs>
<linearGradient id="paint0_linear_103_21" x1="4.58447" y1="85.4292" x2="85.7994" y2="85.4292" gradientUnits="userSpaceOnUse">
<stop stop-color="#1723FF"/>
<stop offset="1" stop-color="#30E35E"/>
</linearGradient>
<linearGradient id="paint1_linear_103_21" x1="62.8594" y1="17.2971" x2="74.7607" y2="17.2971" gradientUnits="userSpaceOnUse">
<stop stop-color="#1723FF"/>
<stop offset="1" stop-color="#30E35E"/>
</linearGradient>
<linearGradient id="paint2_linear_103_21" x1="25" y1="63.0008" x2="66" y2="63.0008" gradientUnits="userSpaceOnUse">
<stop stop-color="#1723FF"/>
<stop offset="1" stop-color="#30E35E"/>
</linearGradient>
<linearGradient id="paint3_linear_103_21" x1="25" y1="63.0008" x2="66" y2="63.0008" gradientUnits="userSpaceOnUse">
<stop stop-color="#1723FF"/>
<stop offset="1" stop-color="#30E35E"/>
</linearGradient>
<linearGradient id="paint4_linear_103_21" x1="25" y1="63.0008" x2="66" y2="63.0008" gradientUnits="userSpaceOnUse">
<stop stop-color="#1723FF"/>
<stop offset="1" stop-color="#30E35E"/>
</linearGradient>
<linearGradient id="paint5_linear_103_21" x1="25" y1="63.0008" x2="66" y2="63.0008" gradientUnits="userSpaceOnUse">
<stop stop-color="#1723FF"/>
<stop offset="1" stop-color="#30E35E"/>
</linearGradient>
<linearGradient id="paint6_linear_103_21" x1="25" y1="63.0008" x2="66" y2="63.0008" gradientUnits="userSpaceOnUse">
<stop stop-color="#1723FF"/>
<stop offset="1" stop-color="#30E35E"/>
</linearGradient>
<linearGradient id="paint7_linear_103_21" x1="25" y1="63.0008" x2="66" y2="63.0008" gradientUnits="userSpaceOnUse">
<stop stop-color="#1723FF"/>
<stop offset="1" stop-color="#30E35E"/>
</linearGradient>
<linearGradient id="paint8_linear_103_21" x1="25" y1="63.0008" x2="66" y2="63.0008" gradientUnits="userSpaceOnUse">
<stop stop-color="#1723FF"/>
<stop offset="1" stop-color="#30E35E"/>
</linearGradient>
</defs>
</svg>

<svg xmlns="http://www.w3.org/2000/svg" width="91" height="91" fill="none"><circle cx="45.411" cy="45.411" r="45.411" fill="#fff"/><path stroke="url(#a)" stroke-miterlimit="10" stroke-width="2" d="M73.172 15.39C80.951 22.789 85.8 33.238 85.8 44.82c0 22.427-18.18 40.607-40.607 40.607S4.584 67.248 4.584 44.82c0-13.899 6.982-26.166 17.633-33.487"/><path stroke="url(#b)" stroke-miterlimit="10" stroke-width="2" d="M68.81 17.297a5.95 5.95 0 1 0 0-11.902 5.95 5.95 0 0 0 0 11.902Z"/><path fill="url(#c)" d="M32.31 49.12V29.214c0-1.002.212-1.214 1.212-1.214H54.82c1.002 0 1.228.221 1.228 1.208v12.604c.346 0 .658-.004.97.001.738.012.965.212 1.072.926.024.165.061.33.084.496.099.707.26.895.971 1.04.123.026.291-.04.405-.114.296-.192.572-.416.86-.62.399-.282.797-.274 1.147.07.891.87 1.776 1.749 2.652 2.635.328.331.353.71.077 1.094-.166.232-.318.479-.512.687-.275.293-.294.557-.134.937.162.386.351.603.784.613.268.007.536.072.8.124.56.11.77.357.772.935.005 1.175.005 2.35 0 3.523-.003.596-.22.844-.814.96-.232.044-.468.107-.7.102-.486-.012-.69.233-.86.663-.138.349-.099.564.118.85.995 1.313.987 1.32-.17 2.467-.61.605-1.218 1.212-1.83 1.815-.562.556-.864.58-1.494.126-.123-.089-.272-.157-.365-.269-.46-.553-.955-.3-1.435-.063-.106.053-.183.226-.211.356-.072.326-.106.662-.16.992-.092.572-.362.826-.955.832-1.183.014-2.367.012-3.549 0-.615-.005-.879-.257-.975-.865-.028-.183-.065-.364-.09-.547-.102-.742-.224-.891-.957-1.055-.123-.027-.292.035-.407.107-.27.171-.517.378-.78.562-.539.378-.874.357-1.34-.1-.651-.636-1.305-1.268-1.934-1.925-.253-.264-.512-.369-.883-.367-5.476.012-10.953-.003-16.43.014-1.614.006-2.939-.533-3.914-1.827a4.146 4.146 0 0 1-.856-2.53 648.958 648.958 0 0 1-.003-4.278c.002-.761.27-1.035 1.035-1.037 1.944-.004 3.887 0 5.83-.002.124 0 .242-.011.443-.02Zm1.623-19.478v.625c0 7.565-.005 15.129.004 22.692.002 1.463.068 2.928-.998 4.184.15.028.211.05.273.05 4.36.001 8.72.002 13.08-.004a.63.63 0 0 0 .399-.145c.52-.496.531-.67.281-1.345-.107-.289-.245-.44-.57-.454-.336-.016-.669-.09-1-.152-.462-.086-.715-.362-.716-.835-.004-1.241-.005-2.482.002-3.724.002-.468.247-.748.716-.83.333-.057.664-.137 1-.157.318-.02.435-.174.576-.444.24-.465.226-.83-.158-1.197-.156-.149-.27-.343-.392-.523-.314-.456-.306-.784.075-1.172.863-.874 1.74-1.737 2.618-2.598.353-.346.746-.355 1.147-.079.29.201.564.428.86.62.115.075.28.145.404.122.693-.126.882-.342.977-1.035.027-.198.063-.397.094-.596.094-.584.343-.806.95-.832.279-.012.559-.001.847-.001V29.64c-6.812.002-13.598.002-20.469.002Zm14.178 17.29c.2.27.377.534.582.777.347.412.382.825.106 1.294-.16.272-.326.568-.38.872-.158.892-.725 1.223-1.566 1.243-.101.003-.218-.009-.299.037-.097.056-.231.163-.234.252-.019.732-.01 1.463-.01 2.195.402.06.735.115 1.068.157.466.059.75.292.897.757.15.477.36.937.58 1.388.19.39.173.736-.092 1.078-.225.29-.436.59-.637.864.592.586 1.15 1.139 1.727 1.708.277-.199.586-.404.877-.632.346-.273.685-.282 1.08-.09.453.22.924.408 1.4.574.423.148.693.382.741.849.038.362.12.72.186 1.086h2.413c.06-.356.136-.684.166-1.015.046-.528.34-.79.83-.944.448-.14.89-.322 1.304-.538.414-.214.766-.19 1.126.091.288.224.592.43.818.592l1.74-1.717c-.171-.23-.36-.509-.571-.766-.317-.386-.333-.768-.105-1.21.216-.415.409-.85.54-1.295.152-.513.473-.739.98-.79.33-.033.655-.095.957-.14v-2.423c-.367-.057-.697-.12-1.03-.156-.45-.05-.734-.262-.883-.702-.166-.49-.373-.97-.596-1.437-.187-.39-.177-.734.092-1.078.226-.288.435-.588.626-.848-.592-.59-1.15-1.145-1.728-1.724-.264.193-.569.405-.86.63-.347.267-.692.28-1.085.09a13.207 13.207 0 0 0-1.399-.576c-.425-.146-.693-.38-.744-.846-.04-.363-.12-.723-.185-1.09H54.13c-.063.37-.142.715-.177 1.062-.049.485-.32.73-.77.88-.477.16-.941.367-1.397.58-.374.174-.71.167-1.041-.085-.305-.231-.617-.453-.91-.666-.58.58-1.129 1.124-1.725 1.713ZM26.678 50.77c-.022.096-.043.143-.043.191-.003 1.124-.011 2.247-.003 3.37.012 1.63 1.238 2.859 2.834 2.859 1.593 0 2.821-1.229 2.841-2.86.013-1.056.005-2.112.002-3.169 0-.126-.029-.252-.045-.39h-5.586Z"/><path fill="url(#d)" d="M37.472 35.939c0-1.173-.005-2.347 0-3.52.004-.723.278-.992 1.02-.996 1.165-.005 2.331-.007 3.496 0 .734.004 1.009.274 1.011 1.007.006 2.346.006 4.693 0 7.04 0 .74-.265 1.007-.996 1.011-1.182.007-2.365.008-3.547 0-.711-.004-.98-.272-.983-.971-.005-1.192-.001-2.382-.001-3.571Zm3.87 2.907V33.06h-2.215v5.787h2.216Z"/><path fill="url(#e)" d="M50.884 36.993c0 .839.004 1.676-.002 2.515-.004.677-.274.965-.938.97-1.218.011-2.434.01-3.651 0-.664-.005-.95-.29-.955-.962-.01-1.676-.01-3.354 0-5.031.004-.695.298-.97.997-.973a524.84 524.84 0 0 1 3.55 0c.723.002.995.279.997 1.015.004.821.002 1.643.002 2.466Zm-3.892-1.852v3.695h2.239v-3.694h-2.239Z"/><path fill="url(#f)" d="M39.445 50.035c-1.012 0-2.023.004-3.037-.001-.615-.003-.955-.288-.961-.784-.007-.5.337-.819.937-.822a849.78 849.78 0 0 1 6.122 0c.6.002.96.313.967.799.008.51-.349.806-.993.808-1.012.003-2.023 0-3.035 0Z"/><path fill="url(#g)" d="M39.417 45.266c1.027 0 2.057-.004 3.085.001.612.003.963.29.972.777.01.488-.345.825-.94.827-2.057.01-4.114.01-6.172-.001-.597-.004-.933-.34-.915-.843.017-.48.346-.756.933-.76 1.013-.007 2.025-.001 3.037-.001Z"/><path fill="url(#h)" d="M39.417 51.592c1.064 0 2.13-.001 3.194.002.397 0 .74.167.804.551.043.258-.061.594-.215.813-.108.151-.414.229-.632.23-2.079.017-4.16.017-6.238.006-.568-.003-.893-.335-.882-.822.01-.468.322-.766.875-.774 1.03-.018 2.063-.006 3.094-.006Z"/><path fill="url(#i)" d="M49.75 52.42c-.01-3.076 2.489-5.577 5.584-5.59 3.082-.01 5.605 2.495 5.602 5.57-.001 3.05-2.487 5.54-5.558 5.562-3.08.024-5.617-2.474-5.628-5.543Zm9.563-.005a3.972 3.972 0 0 0-3.977-3.973c-2.18.006-3.955 1.77-3.963 3.937a3.97 3.97 0 0 0 3.978 3.973c2.177-.004 3.955-1.772 3.962-3.937Z"/><defs><linearGradient id="a" x1="4.584" x2="85.799" y1="85.429" y2="85.429" gradientUnits="userSpaceOnUse"><stop stop-color="#1723FF"/><stop offset="1" stop-color="#30E35E"/></linearGradient><linearGradient id="b" x1="62.859" x2="74.761" y1="17.297" y2="17.297" gradientUnits="userSpaceOnUse"><stop stop-color="#1723FF"/><stop offset="1" stop-color="#30E35E"/></linearGradient><linearGradient id="c" x1="25" x2="66" y1="63.001" y2="63.001" gradientUnits="userSpaceOnUse"><stop stop-color="#1723FF"/><stop offset="1" stop-color="#30E35E"/></linearGradient><linearGradient id="d" x1="25" x2="66" y1="63.001" y2="63.001" gradientUnits="userSpaceOnUse"><stop stop-color="#1723FF"/><stop offset="1" stop-color="#30E35E"/></linearGradient><linearGradient id="e" x1="25" x2="66" y1="63.001" y2="63.001" gradientUnits="userSpaceOnUse"><stop stop-color="#1723FF"/><stop offset="1" stop-color="#30E35E"/></linearGradient><linearGradient id="f" x1="25" x2="66" y1="63.001" y2="63.001" gradientUnits="userSpaceOnUse"><stop stop-color="#1723FF"/><stop offset="1" stop-color="#30E35E"/></linearGradient><linearGradient id="g" x1="25" x2="66" y1="63.001" y2="63.001" gradientUnits="userSpaceOnUse"><stop stop-color="#1723FF"/><stop offset="1" stop-color="#30E35E"/></linearGradient><linearGradient id="h" x1="25" x2="66" y1="63.001" y2="63.001" gradientUnits="userSpaceOnUse"><stop stop-color="#1723FF"/><stop offset="1" stop-color="#30E35E"/></linearGradient><linearGradient id="i" x1="25" x2="66" y1="63.001" y2="63.001" gradientUnits="userSpaceOnUse"><stop stop-color="#1723FF"/><stop offset="1" stop-color="#30E35E"/></linearGradient></defs></svg>
